X: 1
T: Belmonter Valz [D]
C: Matt Wulf
Z: 2005 John Chambers <jc:trillian.mit.edu>
M: 3/4
L: 1/8
K: Dphr^F
| "D"D4 CD | "Cm"E4 F2 | "D"D6 | "Gm"G6 \
| "D"A4 GA | "A7"B4 ^c2 | "D"A6 | "D7"d6 |
| "Gm"^cd B2 c2 | d2 B2 G2 | "Cm"cd ed cB | "D"A2 G2 F2 \
| "D"AB F2 A2 | "Cm"G2 F2 E2 | "D"D2 F2 A2 | "D7" d6 |
| "Gm"^cd B2 c2 | d2 B2 G2 | "Cm"cd ed cB | "D"A2 G2 F2 \
| "D"AB F2 A2 | "Cm"G2 F2 E2 | "D"D3 F E2 | D6 :|
|: "D" z>F E2 D2 | "D7" F2 A2 c2 | "Gm"B4 A2 | G6 \
| "G" z>=B _A2 G2 | "G7" =B2 d2 =f2 | "Cm" e3 =f d2 | e6 |
| "Cm" e3 d c2-| "Cm7"cB A3 G  | "F7" =F6 | =f4 e2 \
| "Bb" d2 c2 B2 | "D7" A>c B2 A2 |"Gm" G2 d2 B2 |1 G6 :|2 "A7" AG F2 "d.C."E2 |]
